images/POLITICA_CALIDAD/DETAILS/TICKS G.svg

<svg width="12" height="41" viewBox="0 0 12 41" fill="none" xmlns="http://www.w3.org/2000/svg">
<path d="M3.60321e-07 35.3919C3.74045e-07 35.0779 0.127413 34.7639 0.38224 34.5257C0.891892 34.0494 1.72008 34.0494 2.23552 34.5257L6 38.0444L9.76448 34.5257C10.2741 34.0494 11.1023 34.0494 11.6178 34.5257C12.1274 35.0021 12.1274 35.7762 11.6178 36.258L6.92664 40.6427C6.41699 41.1191 5.5888 41.1191 5.07336 40.6427L0.38224 36.258C0.127413 36.0198 3.46597e-07 35.7058 3.60321e-07 35.3919Z" fill="#F3F3F3"/>
<path d="M6.59173e-07 28.5549C6.72897e-07 28.241 0.127413 27.927 0.38224 27.6888C0.891892 27.2124 1.72008 27.2124 2.23552 27.6888L6 31.2074L9.76448 27.6888C10.2741 27.2124 11.1023 27.2124 11.6178 27.6888C12.1274 28.1652 12.1274 28.9393 11.6178 29.421L6.92664 33.8058C6.41699 34.2822 5.5888 34.2821 5.07336 33.8058L0.38224 29.421C0.127413 29.1829 6.45449e-07 28.8689 6.59173e-07 28.5549Z" fill="#F3F3F3"/>
<path d="M9.57789e-07 21.7234C9.71513e-07 21.4094 0.127414 21.0955 0.38224 20.8573C0.891892 20.3809 1.72008 20.3809 2.23552 20.8573L6 24.3759L9.76448 20.8573C10.2741 20.3809 11.1023 20.3809 11.6178 20.8573C12.1274 21.3336 12.1274 22.1077 11.6178 22.5895L6.92664 26.9743C6.41699 27.4506 5.5888 27.4506 5.07336 26.9743L0.38224 22.5895C0.127414 22.3513 9.44065e-07 22.0374 9.57789e-07 21.7234Z" fill="#F3F3F3"/>
<path d="M1.2564e-06 14.8919C1.27013e-06 14.5779 0.127414 14.2639 0.382241 14.0257C0.891893 13.5494 1.72008 13.5494 2.23552 14.0257L6 17.5444L9.76448 14.0257C10.2741 13.5494 11.1023 13.5494 11.6178 14.0257C12.1274 14.5021 12.1274 15.2762 11.6178 15.758L6.92664 20.1427C6.41699 20.6191 5.5888 20.6191 5.07336 20.1427L0.382241 15.758C0.127414 15.5198 1.24268e-06 15.2058 1.2564e-06 14.8919Z" fill="#F3F3F3"/>
<path d="M1.55526e-06 8.05492C1.56898e-06 7.74096 0.127414 7.42699 0.382241 7.1888C0.891893 6.71244 1.72008 6.71244 2.23552 7.1888L6 10.7074L9.76448 7.1888C10.2741 6.71244 11.1023 6.71244 11.6178 7.1888C12.1274 7.66517 12.1274 8.43927 11.6178 8.92105L6.92664 13.3058C6.41699 13.7821 5.5888 13.7821 5.07336 13.3058L0.382241 8.92104C0.127414 8.68286 1.54153e-06 8.36889 1.55526e-06 8.05492Z" fill="#F3F3F3"/>
<path d="M1.85387e-06 1.2234C1.8676e-06 0.909426 0.127415 0.595458 0.382241 0.357274C0.891893 -0.119092 1.72008 -0.119092 2.23552 0.357274L6 3.87589L9.76448 0.357275C10.2741 -0.119092 11.1023 -0.119092 11.6178 0.357275C12.1274 0.833641 12.1274 1.60774 11.6178 2.08952L6.92664 6.47425C6.41699 6.95062 5.5888 6.95062 5.07336 6.47425L0.382241 2.08952C0.127415 1.85133 1.84015e-06 1.53736 1.85387e-06 1.2234Z" fill="#F3F3F3"/>
</svg>

<svg width="12" height="41" fill="none" xmlns="http://www.w3.org/2000/svg"><path d="M0 35.392c0-.314.127-.628.382-.866a1.38 1.38 0 0 1 1.854 0L6 38.044l3.764-3.518a1.38 1.38 0 0 1 1.854 0c.51.476.51 1.25 0 1.732l-4.691 4.385a1.38 1.38 0 0 1-1.854 0l-4.69-4.385A1.182 1.182 0 0 1 0 35.392Z" fill="#F3F3F3"/><path d="M0 28.555c0-.314.127-.628.382-.866a1.38 1.38 0 0 1 1.854 0L6 31.207l3.764-3.518a1.38 1.38 0 0 1 1.854 0c.51.476.51 1.25 0 1.732l-4.691 4.385a1.38 1.38 0 0 1-1.854 0L.383 29.42A1.181 1.181 0 0 1 0 28.555Z" fill="#F3F3F3"/><path d="M0 21.723c0-.314.127-.627.382-.866a1.38 1.38 0 0 1 1.854 0L6 24.376l3.764-3.519a1.38 1.38 0 0 1 1.854 0c.51.477.51 1.25 0 1.733l-4.691 4.384a1.38 1.38 0 0 1-1.854 0L.383 22.59A1.181 1.181 0 0 1 0 21.723Z" fill="#F3F3F3"/><path d="M0 14.892c0-.314.127-.628.382-.866a1.38 1.38 0 0 1 1.854 0L6 17.544l3.764-3.518a1.38 1.38 0 0 1 1.854 0c.51.476.51 1.25 0 1.732l-4.691 4.385a1.38 1.38 0 0 1-1.854 0l-4.69-4.385A1.182 1.182 0 0 1 0 14.892Z" fill="#F3F3F3"/><path d="M0 8.055c0-.314.127-.628.382-.866a1.38 1.38 0 0 1 1.854 0L6 10.707 9.764 7.19a1.38 1.38 0 0 1 1.854 0c.51.476.51 1.25 0 1.732l-4.691 4.385a1.38 1.38 0 0 1-1.854 0L.383 8.92A1.182 1.182 0 0 1 0 8.055Z" fill="#F3F3F3"/><path d="M0 1.223C0 .91.127.595.382.357a1.38 1.38 0 0 1 1.854 0L6 3.876 9.764.357a1.38 1.38 0 0 1 1.854 0c.51.477.51 1.25 0 1.733L6.927 6.474a1.38 1.38 0 0 1-1.854 0L.383 2.09A1.182 1.182 0 0 1 0 1.223Z" fill="#F3F3F3"/></svg>
